X: 13
M: 2/4
L: 1/8
K: D
V: 1
|: d2fd | {b}a2fd | A>BcA | (d/c/d/e/)d2 | FDGE | AFBG | F>Adf | (e/d/c/B/)A2 :|
|: ([E2A,2-]T[F2A,2]) | (G/A/G/F/)[E2A,2] | ([F2A,2-][G2A,2]) | (A/B/A/G/)F2 |\
|:[A3F3]G | .[F2A,2].[F2A,2] | G3F | .[E2A,2].[E2A,2] | [F3A,3]E | D>FAd | A>FG>E | [D4A,4] :|
V: 2 clef=bass middle=d
|: d2d'2 | c'2d'2 | a2A2 | dd'af | d2e2 | f2g2 | a2fd | a2A2 :|
|: AaAa | AaAa | DdDd | DdDd | d2fd | g2b2 | a2A2 | dAD2 :|
|: DdDd | DdDd | AaAa | AaAa | d2A2 | d2fd | a2A2 | d2D2 :|


